X:1529
T:Lisburn Lasses, The
R:reel
N:"collected from J. O'Neill"
B:"O'Neill's Dance Music of Ireland, 1529"
T: na cailini.de ua lios-boireann.
Z:transcribed by John B. Walsh, walsh@math.ubc.ca 8/23/96
M:C|
L:1/8
K:D
F2 EF D2DE|FDED FDED|F2 EF  D2 DE|1 FABc dBAG:|2 FABc d2 de||
fd 3edcd fd 3edcd|3fed fg a2 3bag|3fed ec dcAB|cdcA Ggfg|
fd 3edcd fd 3edcd|Tfedc d2 de|3fed ec dcAB|TcAGF GBAG||
